X: 20562
T: John Naughton's
R: jig
M: 6/8
K: Gmixolydian
|:BDD BAG|EGD DEG|BDD BAG|EAA AGA|
ABB BAG|EGD d2c|BdB AGA|1 BG^F G2A:|2 BG^F GBd||
|:eff fdc|BGG GBd|eff fdc|dgg geg|
eff fdc|BGG fef|dfg fdc|1 BGG GBd:|2 BGG G2A||

